X:693
T:Soldiers' Joy
S:Colin Hume's website,  colinhume.com  - chords can also be printed below the stave.
Q:1/2=120
M:4/4
L:1/8
K:D
P:A
|: FG | "D"AFDF AFDF | "D"A2d2 "G"d2cB | "D"AFDF "Bm"AFDF | "Em"G2E2 "A7"E2FG |\
"D"AFDF AFDF | "D"A2d2 "G"d2g2 | "D/A"fafd "A7"egec | "D"d2d2 d2 :|
P:B
|: de | "D"f2f2 fagf | "A7"e2e2 egfe | "D"f2f2 "Bm"fagf | "Em"edcB "A7"A2de |\
"D"f2f2 fagf | "A7"e2e2 egfe | "D"fafd "A7"egec | "D"d2d2 d2 :|

